public/images/icons/certification/blocked.svg

<svg xmlns="http://www.w3.org/2000/svg" width="38" height="37" viewBox="0 0 38 37"><g fill="none"><path fill="#E5E5E5" d="M18.5016538,0.00490719783 C15.6231387,0.106070604 13.0749097,1.76354809 11.7846496,4.25077896 L11.715,4.388 L11.5097232,4.34572154 C8.70863511,3.81461603 5.77381003,4.8366702 3.9164333,7.13033945 L3.72794732,7.3724932 C2.01853299,9.65829915 1.70337144,12.6501522 2.79803244,15.1995923 L2.905,15.437 L2.78455299,15.5356895 C0.573779158,17.4103078 -0.471047618,20.3986587 0.203489222,23.3203987 L0.271005464,23.5911219 C1.01531541,26.3672772 3.19574716,28.4746653 5.90240618,29.1768043 L6.049,29.212 L6.05187156,29.3620664 C6.13597765,32.2414645 7.7978892,34.9091108 10.4760347,36.2153296 L10.7456172,36.3406415 C13.3650755,37.499222 16.3628238,37.1303521 18.6043368,35.4786067 L18.78,35.343 L18.9573086,35.47881 C21.2771906,37.1873449 24.4051161,37.5230814 27.0864047,36.2153296 L27.3344826,36.0889203 C29.8668301,34.7422064 31.4288342,32.1517132 31.5098386,29.3624062 L31.511,29.212 L31.6592782,29.1773358 C34.4536074,28.4524404 36.6871942,26.2300933 37.3589501,23.3203987 L37.4171693,23.0463185 C37.9670615,20.2128871 36.9195009,17.3516563 34.7776285,15.535962 L34.656,15.437 L34.7642796,15.1999265 C35.8981418,12.5591306 35.5196284,9.44407033 33.6460061,7.13033945 L33.4567072,6.90520506 C31.5929625,4.77008793 28.7599805,3.83217228 26.0526121,4.34602189 L25.846,4.389 L25.7779976,4.25104751 C24.4458995,1.68333307 21.7736225,0 18.7812197,0 L18.5016538,0.00490719783 Z M18.7812197,2 C21.2934308,2 23.5035524,3.59004627 24.3270039,5.92022155 L24.6581927,6.85740851 L25.5973609,6.53188021 C27.9166859,5.72797095 30.5207355,6.44898314 32.0917141,8.38898023 C33.6827363,10.353729 33.8290621,13.0931955 32.5120716,15.2033175 L31.9857639,16.0465836 L32.825864,16.5779304 C34.918755,17.9016428 35.9765065,20.4175971 35.41021,22.8704966 C34.8462487,25.3132815 32.806956,27.1070789 30.3571005,27.3906624 L29.3696608,27.5049637 L29.4780505,28.4930698 C29.7463466,30.9389185 28.457947,33.3211798 26.2096624,34.4177415 C23.9419856,35.5237614 21.2458371,35.0544224 19.4854445,33.3044261 L18.7801609,32.6033077 L18.0751498,33.3047002 C16.3164437,35.0543798 13.6204488,35.5237589 11.352777,34.4177415 C9.10437557,33.3211229 7.81565805,30.9384292 8.08350503,28.4923078 L8.19168432,27.5043569 L7.20441885,27.390091 C4.75501285,27.1065975 2.71613403,25.3130361 2.15222935,22.8704966 C1.58593789,20.4176188 2.64366282,17.9015108 4.73652215,16.5773309 L5.57642527,16.045913 L5.05015428,15.2027754 C3.73335752,13.0931382 3.87973664,10.3536875 5.47072522,8.38898023 C7.04161848,6.44908861 9.64550732,5.72801001 11.9656399,6.53153672 L12.9047046,6.85676104 L13.2357748,5.91974138 C14.058924,3.5900029 16.2690521,2 18.7812197,2 Z"/><path fill="#FF4B4B" d="M1.61289944,0.209704612 L1.70710678,0.292893219 L5.242,3.828 L8.77817459,0.292893219 C9.16869888,-0.0976310729 9.80186386,-0.0976310729 10.1923882,0.292893219 C10.5528721,0.65337718 10.5806017,1.22060824 10.2755768,1.61289944 L10.1923882,1.70710678 L6.657,5.242 L10.1923882,8.77817459 C10.5829124,9.16869888 10.5829124,9.80186386 10.1923882,10.1923882 C9.83190419,10.5528721 9.26467314,10.5806017 8.87238193,10.2755768 L8.77817459,10.1923882 L5.242,6.657 L1.70710678,10.1923882 C1.31658249,10.5829124 0.683417511,10.5829124 0.292893219,10.1923882 C-0.0675907428,9.83190419 -0.0953202783,9.26467314 0.209704612,8.87238193 L0.292893219,8.77817459 L3.828,5.242 L0.292893219,1.70710678 C-0.0976310729,1.31658249 -0.0976310729,0.683417511 0.292893219,0.292893219 C0.65337718,-0.0675907428 1.22060824,-0.0953202783 1.61289944,0.209704612 Z" transform="translate(14 14)"/></g></svg>

<svg viewBox="0 0 38 37"><g fill="none"><path fill="#E5E5E5" d="M18.502.005a7.882 7.882 0 00-6.717 4.246l-.07.137-.205-.042A7.882 7.882 0 003.916 7.13l-.188.242a7.883 7.883 0 00-.93 7.828l.107.237-.12.099A7.882 7.882 0 00.203 23.32l.068.271a7.882 7.882 0 005.631 5.586l.147.035.003.15a7.882 7.882 0 004.424 6.853l.27.126a7.88 7.88 0 007.858-.862l.176-.136.177.136a7.882 7.882 0 008.13.736l.247-.126a7.88 7.88 0 004.176-6.727l.001-.15.148-.035a7.882 7.882 0 005.7-5.857l.058-.274a7.882 7.882 0 00-2.64-7.51l-.121-.099.108-.237a7.883 7.883 0 00-1.118-8.07l-.19-.225a7.881 7.881 0 00-7.403-2.559l-.207.043-.068-.138A7.882 7.882 0 0018.781 0l-.28.005zM18.782 2a5.882 5.882 0 015.545 3.92l.331.937.94-.325a5.88 5.88 0 016.914 8.671l-.526.844.84.53a5.881 5.881 0 01-2.469 10.814l-.987.114.108.988a5.88 5.88 0 01-9.993 4.811l-.705-.7-.705.7a5.882 5.882 0 01-9.992-4.812l.109-.988-.988-.114a5.881 5.881 0 01-2.467-10.813l.84-.531-.527-.843a5.882 5.882 0 016.916-8.671l.939.325.33-.937A5.882 5.882 0 0118.782 2z"/><path fill="#FF4B4B" d="M15.613 14.21l.094.083 3.535 3.535 3.536-3.535a1 1 0 011.498 1.32l-.084.094-3.535 3.535 3.535 3.536a1 1 0 01-1.32 1.498l-.094-.084-3.536-3.535-3.535 3.535a1 1 0 01-1.497-1.32l.083-.094 3.535-3.536-3.535-3.535a1 1 0 011.32-1.497z"/></g></svg>
